X:1
T:Since Robin Hood
T:Since Robin Hood
T:Air or Fantastick Spirit
T:Thomas Weelkes (1575?-1623)
C:Thomas Weelkes (1575?-1623)
%%score [ 1 2 3 ]
L:1/8
Q:1/4=124
M:4/4
K:Eb
V:1 treble nm="Sopran"
V:2 treble nm="Alt"
V:3 bass nm="Baryton"
V:1
 E2 | B2 B2 c2 d2 | e2 (de) f2 e2 | d2 c2 B3 A | G2 E4 B2 | c2 c2 c2 (BA) | G3 A B2 e2 | %7
w: Since|Ro- bin Hood, maid|Ma- ri- * an and|lit- tle John are|gone- a, the|hob- by horse was _|quite for- got, when|
 d2 c2 B3 A | G4 E2 ::[M:3/4][Q:3/4=46] e4 d2 | e4 B2 | c3 c B2 | c4 G2 | A4 G2 | A4 E2 | %15
w: Kempe did dance a-|lone- a.|He did|la- bour|af- ter the|ta- bor|for to|dance then|
 F3 (E F2) | G4 B B | (cB cd e2) | d2 c3 c |[M:4/4][Q:1/4=124] B8 | z4 z2 e2- | e2 d2 e2 z B | %22
w: in- to _|France, for to|dance _ _ _ _|then in- to|France.|He|_ tooke paines, to|
 c2 z A B2 z G | =A A c2 d2 e2 | f4 e4 | d4 c3 d | e3 B _d3 A | c3 G A2 F2 | G2 G A B G A F | %29
w: skip, to skip, to|skip it in hope of|gaines, of|gaines he did|trip it, trip it,|trip it on the|toe, did- dle, did- dle, did- dle|
 G2 B c d e c d | e8 :| %31
w: doe, did- dle, did- dle, did- dle|doe.|
V:2
 E2 | G2 G2 A2 F2 | G2 B2 A2 G2 | F3 E D (C D2) | E4 E2 G2 | E2 F2 C2 D2 | E3 F G2 E2 | %7
w: Since|Ro- bin Hood, maid|Ma- ri- an and|lit- tle John are _|gone- a, the|hob- by horse was|quite for- got, when|
 F3 E D (C D2) | E4 E2 ::[M:3/4] G4 F2 | G4 G2 | A3 A G2 | A4 E2 | F4 E2 | (F2 CD) E2 | D3 (C D2) | %16
w: Kempe did dance a- *|lone- a.|He did|la- bour|af- ter the|ta- bor|for to|dance _ _ then|in- to _|
 E4 G G | (AG AB c2) | B2 B2 =A2 |[M:4/4] B4 z2 G2- | G2 F2 G2 G2 | F4 z E G2 | z C F2 z D =E2 | %23
w: France, for to|dance _ _ _ _|then in- to|France. He|_ tooke paines, tooke|paines to skip,|to skip, to skip|
 F2 A2 A2 G2 | F2 F2 G2 =A2 | B4 E3 F | G3 G B3 F | A3 E F2 D2 | E2 B, C D E C D | E2 G A B G A F | %30
w: it in hope of|gaines, in hope of|gaines he did|trip it, trip it,|trip it on the|toe, did- dle, did- dle, did- dle|doe, did- dle, did- dle, did- dle|
 G8 :| %31
w: doe.|
V:3
 G,2 | G,2 G,2 C,2 D,2 | G,,2 B,,2 A,,2 (B,,C,) | D,2 C,2 D,2 D,2 | G,,4 G,,2 G,,2 | %5
w: Since|Ro- bin Hood, maid|Ma- ri- an and _|lit- tle John are|gone- a, the|
 C,2 A,,2 C,2 D,2 | G,,2 G,,2 G,2 E,2 | D,2 C,2 D,2 D,2 | G,,4 G,,2 ::[M:3/4] G,,4 D,2 | %10
w: hob- by horse was|quite for- got when|Kempe did dance a-|lone- a.|He did|
 G,,4 G,,2 | C,3 C, G,,2 | C,3 (D, E,2) | A,,4 E,2 | (A,,B,, C,D,) E,2 | D,3 (E, D,2) | %16
w: la- bour|af- ter the|ta- bor _|for to|dance _ _ _ then|in- to _|
 G,,4 G, G, | C,4 C,2 | D,2 A,,4 |[M:4/4] D,4 z2 G,2- | G,2 F,2 G,4 | z2 D,2 E,2 z B,, | %22
w: France, for to|dance then|in- to|France. He|_ tooke paines,|tooke paines to|
 C,2 z A,, D,2 z E, | A,, A,, A,2 A,2 G,2 | F,4 E,4 | D,4 C,3 A,, | G,,3 G, D,3 _F, | %27
w: skip, to skip, to|skip it in hope of|gaines, of|gaines he did|trip it, trip it,|
 C,3 E, A,,2 D,2 | G,,2 G,, C, B,, G,, A,, D, | G,,2 G, E, D, E, C, D, | G,,8 :| %31
w: trip it on the|toe, did- dle, did- dle, did- dle|doe, did- dle, did- dle, did- dle|doe.|

